rospo-dark/24x24/panel/tusk-indicator.svg

<svg height="24" width="24" xmlns="http://www.w3.org/2000/svg"><path d="m4.800781 4.0000001c-.4432 0-.800781.3575813-.800781.8007813v14.3984376c0 .4432.357581.800781.800781.800781h14.398438c.4432 0 .800781-.357581.800781-.800781v-14.3984376c0-.4432-.357581-.8007813-.800781-.8007813zm4 4.0000001h6.398438c.4432 0 .800781.3575812.800781.8007812v6.3984376c0 .4432-.357581.800781-.800781.800781h-6.398438c-.4432 0-.800781-.357581-.800781-.800781v-6.3984376c0-.4432.357581-.8007812.800781-.8007812z" fill="#d3dae3"/></svg>

<svg xmlns="http://www.w3.org/2000/svg" width="24" height="24" version="1.1">
 <defs>
  <style id="current-color-scheme" type="text/css">
   .ColorScheme-Text { color:#d3dae3; } .ColorScheme-Highlight { color:#5294e2; }
  </style>
 </defs>
 <path style="fill:currentColor" class="ColorScheme-Text" d="M 4.800781,4.0000001 C 4.357581,4.0000001 4,4.3575814 4,4.8007814 L 4,19.199219 C 4,19.642419 4.357581,20 4.800781,20 l 14.398438,0 C 19.642419,20 20,19.642419 20,19.199219 L 20,4.8007814 c 0,-0.4432 -0.357581,-0.8007813 -0.800781,-0.8007813 l -14.398438,0 z m 4,4.0000001 6.398438,0 C 15.642419,8.0000002 16,8.3575814 16,8.8007814 l 0,6.3984376 C 16,15.642419 15.642419,16 15.199219,16 L 8.800781,16 C 8.357581,16 8,15.642419 8,15.199219 L 8,8.8007814 c 0,-0.4432 0.357581,-0.8007812 0.800781,-0.8007812 z"/>
</svg>
